usr/share/icons/big-icons/symbolic/actions/stop-sign-symbolic.svg

<svg width="16px" height="16px" version="1.1" viewBox="0 0 16 16" xmlns="http://www.w3.org/2000/svg">
 <g fill="#363636">
  <path d="m6.5078 3.9883-2.5078 2.4805v2.9883l2.5117 2.5312h2.9805l2.5078-2.5312v-2.9883l-2.5-2.4805h-2.9922zm0.34766 1h2.2891l1.8555 1.8359v2.2891l-1.8555 1.875h-2.2891l-1.8555-1.875v-2.2891l1.8555-1.8359z"/>
  <path d="m5.219 1-0.313 0.281-3.625 3.625-0.281 0.314v5.56l0.281 0.313 3.625 3.625 0.313 0.281h5.561l0.313-0.281 3.625-3.625 0.281-0.313v-5.56l-0.281-0.313-3.625-3.625-0.313-0.282h-5.56zm0.406 1h4.75l3.625 3.625v4.75l-3.625 3.625h-4.75l-3.625-3.625v-4.75z" color="#000000" font-family="Sans" font-weight="400" overflow="visible" style="text-decoration-line:none;text-indent:0;text-transform:none"/>
 </g>
</svg>

<svg xmlns="http://www.w3.org/2000/svg" width="16" height="16">
<g fill="#fcfcfc">
<path d="M6.508 3.988 4 6.468v2.99l2.512 2.53h2.98L12 9.458v-2.99l-2.5-2.48zm.347 1h2.29L11 6.824v2.29l-1.855 1.874h-2.29L5 9.113V6.824z"/>
<path d="m5.219 1-.313.281-3.625 3.625L1 5.22v5.56l.281.313 3.625 3.625.313.281h5.561l.313-.281 3.625-3.625.281-.313V5.22l-.281-.313-3.625-3.625L10.78 1zm.406 1h4.75L14 5.625v4.75L10.375 14h-4.75L2 10.375v-4.75z" color="#000" font-family="Sans" font-weight="400" overflow="visible" style="text-decoration-line:none;text-indent:0;text-transform:none"/>
</g>
</svg>
